!!!!SEGMENT: pl-kk--kk-i-7--003_anonim--alleluia-ave-maria.krn
!!!cenid: 16xx:793
!!!COM: Anonim
!!!COM-rismID: pe30004985
!!!CDT:
!!!CNT:
!!!OTL: Alleluia Ave Maria
!!!PDT:
!!!AGN: Sacred
!!!SMS-siglum: PL-Kk
!!!SMS-shelfmark: Kk.I.7
!!!SMS-shelfwork: 003 W
!!!SMS-variant:
!!!SMS-altvar:
!!!NIFC-rismSourceID: 300258080
!!!NIFC-islandoraID: pl-kk:1956
!!!URL-pdf-islandora: https://repozytorium.nifc.pl/islandora/object/pl-kk%3A1956/datastream/PDF/view
!!!URL-scan: https://polish.musicsources.pl/pl/lokalizacje/galeria/rekopisy/6140 @EN{Scan on Polish Music Sources Website} @PL{Skany w portalu Dziedzictwo Muzyki Polskiej w otwartym dostępie}
!!!ONB-nifc: UWAGA: C (skan 0004-0005, s. 3-4), A (0091-0092, s. 3-4), T(0169, s. 2-3), B(0256-0257, s. 3-4). Następny utwór: Mittit ad virginem
!!!AIN: 1 alto 1 bass 1 soprn 1 tenor
!!!key:
**kern	**text	**kern	**text	**kern	**text	**kern	**text
*part4	*part4	*part3	*part3	*part2	*part2	*part1	*part1
*staff4	*staff4	*staff3	*staff3	*staff2	*staff2	*staff1	*staff1
*Ibass	*	*Itenor	*	*Ialto	*	*Isoprn	*
*I"BASSVS.	*	*I"TENOR.	*	*I"ALTVS.	*	*I"CANTVS.	*
*I'B.	*	*I'T.	*	*I'A.	*	*I'C.	*
*clefF4	*	*clefC4	*	*clefC4	*	*clefC3	*
*k[]	*	*k[]	*	*k[]	*	*k[]	*
*C:	*	*C:	*	*C:	*	*C:	*
*M2/1	*	*M2/1	*	*M2/1	*	*M2/1	*
*met(c|)	*	*met(c|)	*	*met(c|)	*	*met(c|)	*
=1-	=1-	=1-	=1-	=1-	=1-	=1-	=1-
!LO:TX:t=P:problem=kreska pseudotaktowa	!	!	!	!LO:TX:t=P:problem=kreska pseudotaktowa	!	!	!
!LO:TX:t=P:problem=A wielkie przed kluczem, na pocz. pięciolinii	!	!LO:TX:t=P:problem=A wielkie przed kluczem, na pocz. pięciolinii	!	!	!	!	!
1G\	Al-	1G/	Al-	1rA	.	0rd	.
*lig	*	*lig	*	*	*	*	*
!	!	!	!	!LO:TX:t=P:problem=A wielkie przed kluczem, na pocz. pięciolinii	!	!	!
1C/	-le-	1E/	-le-	1c\	Al-	.	.
=2-	=2-	=2-	=2-	=2-	=2-	=2-	=2-
!	!	!	!	!	!	!LO:TX:t=P:problem=A wielkie przed kluczem, na pocz. pięciolinii	!
1D\	.	1F/	.	1A\	-le-	1d\	Al-
*Xlig	*	*Xlig	*	*	*	*	*
*	*	*lig	*	*	*	*	*
*	*	*	*	*2\right	*	*lig	*
2GG/	.	1G/	.	2B\	.	1B/	-le-
!LO:TX:a:t=P:problem=♮ above	!	!	!	!	!	!	!
2BBn/	.	.	.	1G/	.	.	.
=3-	=3-	=3-	=3-	=3-	=3-	=3-	=3-
!LO:TX:t=P:problem=kreska pseudotaktowa	!	!	!	!	!	!	!
1AA/	-lu-	1A\	.	.	.	1c\	.
.	.	.	.	4F/	-lu-	.	.
!	!	!	!	!LO:TX:t=P:problem=kreska pseudotaktowa	!	!	!
.	.	.	.	4E/	.	.	.
*	*	*Xlig	*	*	*	*Xlig	*
2GG/	-ia	1B\	.	1G/	-ia	1d\	.
*	*ij	*	*	*	*	*	*
2GG/	al-	.	.	.	.	.	.
=4-	=4-	=4-	=4-	=4-	=4-	=4-	=4-
*	*	*lig	*	*	*	*	*
!	!	!	!	!	!	!LO:TX:t=P:problem=kreska pseudotaktowa	!
4C/	-le-	1c\	.	2.G/	Al-	1e\	.
4D/	.	.	.	.	.	.	.
4E\	.	.	.	.	.	.	.
!LO:TX:t=P:problem=kreska pseudotaktowa	!	!	!	!LO:TX:t=P:problem=kreska pseudotaktowa	!	!	!
4F\	.	.	.	4A/	.	.	.
*2\right	*	*	*	*	*	*2\right	*
2G\	.	1B\	.	4B/	.	2d\	.
.	.	.	.	4c\	.	.	.
2GG/	-lu-	.	.	1d\	.	2g\	.
*	*	*Xlig	*	*	*	*	*
=5-	=5-	=5-	=5-	=5-	=5-	=5-	=5-
2D/	.	0A\	-lu-	.	.	2f\	.
!LO:TX:t=P:problem=kreska pseudotaktowa	!	!	!	!LO:TX:t=P:problem=kreska pseudotaktowa	!	!LO:TX:t=P:problem=kreska pseudotaktowa	!
2C#X/	.	.	.	2e\	.	2e\	.
1D\	-ia	.	.	1d\	-le-	2.f\	.
.	.	.	.	.	.	4e\	.
=6-	=6-	=6-	=6-	=6-	=6-	=6-	=6-
!	!	!LO:TX:a:t=P:problem=custos g	!	!	!	!	!
2GG;/	al-	00.G/;	-ia.	2B;\	-lu-	2d\	.
2.C/	-le-	.	.	1c\	-ia	2.e\	.
4D/	.	.	.	.	.	4f\	-lu-
*	*	*	*	*	*ij	*	*
1E\	.	.	.	2.B\	al-	4g\	.
!	!	!	!	!	!	!LO:TX:t=P:problem=kreska pseudotaktowa	!
.	.	.	.	.	.	4f\	.
=7-	=7-	=7-	=7-	=7-	=7-	=7-	=7-
.	.	.	.	.	.	2e;\	-ia
.	.	.	.	4c\	.	.	.
!	!	!	!	!LO:TX:t=P:problem=kreska pseudotaktowa	!	!	!
2BBn/	.	.	.	2d\	-le-	2d;\	.
1C/	-lu-	.	.	1e\	-lu-	1c\	.
=8-	=8-	=8-	=8-	=8-	=8-	=8-	=8-
!	!	!	!	!LO:TX:t=P:problem=kreska pseudotaktowa	!	!	!
0GG/;	-ia	.	.	0d\;	-ia	0B/;	.
*	*Xij	*	*	*	*Xij	*	*
!LO:LB:g=original	!	!LO:TX:a:t=original	!	!LO:LB:g=original	!	!LO:LB:g=original	!
=9||-	=9||-	=9||-	=9||-	=9||-	=9||-	=9||-	=9||-
*M2/1	*	*M2/1	*	*M2/1	*	*M2/1	*
*met(c|)	*	*met(c|)	*	*met(c|)	*	*met(c|)	*
!LO:TX:t=P:problem=A wielkie przed kluczem, na pocz. pięciolinii	!	!	!	!	!	!	!
*lig	*	*	*	*	*	*	*
!	!	!LO:TX:t=P:problem=A wielkie przed kluczem, na pocz. pięciolinii	!	!	!	!	!
*	*	*	*	*	*	*lig	*
!	!	!	!	!LO:TX:t=P:problem=kreska pseudotaktowa	!	!	!
1GG/	A-	1G/	A-	1r	.	1d\	A-
*	*	*lig	*	*	*	*	*
!	!	!	!	!LO:TX:t=P:problem=A wielkie przed kluczem, na pocz. pięciolinii	!	!	!
1C/	.	1E/	-ue	1c\	A-	1e\	.
*Xlig	*	*	*	*	*	*Xlig	*
=10-	=10-	=10-	=10-	=10-	=10-	=10-	=10-
!LO:TX:t=P:problem=kreska pseudotaktowa	!	!	!	!	!	!LO:TX:t=P:problem=kreska pseudotaktowa	!
1D\	.	1F/	.	1A\	-ue	1d\	-ue
*	*	*Xlig	*	*	*	*	*
!	!	!LO:TX:t=P:problem=kreska pseudotaktowa	!	!	!	!	!
2GG,</	-ue	1G/	.	2B\	Ma-	2r	.
4C/	A-	.	.	1c\	.	2g\	A-
!LO:TX:t=P:problem=kreska pseudotaktowa	!	!	!	!	!	!	!
4D/	.	.	.	.	.	.	.
=11-	=11-	=11-	=11-	=11-	=11-	=11-	=11-
4E\	.	1G/	Ma-	.	.	2d\	-ue
4F\	.	.	.	.	.	.	.
!	!	!	!	!	!	!LO:TX:t=P:problem=kreska pseudotaktowa	!
2.G\	.	.	.	4B\	-ri-	2e\	Ma-
!	!	!	!	!LO:TX:t=P:problem=kreska pseudotaktowa	!	!	!
.	.	.	.	4c\	.	.	.
.	.	1A\	.	1d\	-a	2f\	.
4F\	-ue	.	.	.	.	.	.
!LO:TX:t=P:problem=kreska pseudotaktowa	!	!	!	!	!	!	!
2F\	Ma-	.	.	.	.	1d\	.
=12-	=12-	=12-	=12-	=12-	=12-	=12-	=12-
*	*	*lig	*	*	*	*	*
1G\	-ri-	1B\	-ri-	2r	.	.	.
*	*	*	*	*	*ij	*	*
.	.	.	.	1d\	A-	1g\	.
!LO:TX:t=P:problem=kreska pseudotaktowa	!	!	!	!	!	!	!
1D\	-a	1A\	.	.	.	.	.
!	!	!	!	!LO:TX:t=P:problem=kreska pseudotaktowa	!	!LO:TX:t=P:problem=kreska pseudotaktowa	!
.	.	.	.	2d\	-ue	2f\	-ri-
*	*	*Xlig	*	*	*	*	*
=13-	=13-	=13-	=13-	=13-	=13-	=13-	=13-
*	*	*lig	*	*	*	*	*
2r	.	1B\	.	2d\	Ma-	2g\	-a
*	*ij	*	*	*	*	*	*ij
1G\	A-	.	.	2d\	-ri-	2g\	a-
.	.	1c\	.	1A\	-a	2e\	-ue
!LO:TX:t=P:problem=kreska pseudotaktowa	!	!	!	!	!	!LO:TX:t=P:problem=kreska pseudotaktowa	!
2F\	-ue	.	.	.	.	2f\	Ma-
*	*	*Xlig	*	*	*	*	*
=14-	=14-	=14-	=14-	=14-	=14-	=14-	=14-
*	*	*lig	*	*	*	*	*
1G\	Ma-	1B\	.	2r	.	2d\	.
.	.	.	.	1d\	A-	1g\	.
1D\	-ri-	1A\	.	.	.	.	.
!	!	!	!	!LO:TX:t=P:problem=kreska pseudotaktowa	!	!LO:TX:t=P:problem=kreska pseudotaktowa	!
.	.	.	.	2d\	-ue	2f\	-ri-
*	*	*Xlig	*	*	*	*	*
=15-	=15-	=15-	=15-	=15-	=15-	=15-	=15-
!LO:TX:t=P:problem=kreska pseudotaktowa	!	!LO:TX:t=P:problem=kreska pseudotaktowa	!	!	!	!	!
0GG/	-a	1G/	-a	2.d\	Ma-	2.g\	-a
.	.	.	.	4c\	-ri-	8f\L	.
.	.	.	.	.	.	8e\J	.
*	*	*lig	*	*	*	*	*
!	!	!	!	!	!	!LO:TX:t=P:problem=kreska pseudotaktowa	!
.	.	1G/	gra-	4B\	.	0d\	.
.	.	.	.	4A/	.	.	.
!	!	!	!	!LO:TX:t=P:problem=kreska pseudotaktowa	!	!	!
.	.	.	.	2B\	-a	.	.
*	*	*	*	*	*Xij	*	*
=16-	=16-	=16-	=16-	=16-	=16-	=16-	=16-
2r	.	1F/	.	2.A/	gra-	.	.
*	*Xij	*	*	*	*	*	*
1D\	gra-	.	.	.	.	.	.
.	.	.	.	4F/	-ti-	.	.
*	*	*Xlig	*	*	*	*	*
*	*	*lig	*	*	*	*	*
.	.	1E/	.	2G/	-a	1r	.
!LO:TX:t=P:problem=kreska pseudotaktowa	!	!	!	!	!	!	!
2C/	-ti-	.	.	1A\	ple-	.	.
*	*	*	*	*	*	*	*Xij
=17-	=17-	=17-	=17-	=17-	=17-	=17-	=17-
1BB/	-a	1D/	.	.	.	2r	.
.	.	.	.	2G/	.	1d\	gra-
*lig	*	*Xlig	*	*	*	*	*
*	*	*lig	*	*	*	*	*
!	!	!	!	!LO:TX:t=P:problem=kreska pseudotaktowa	!	!	!
1AA/	ple-	1E/	.	0A\	-na	.	.
!	!	!	!	!	!	!LO:TX:t=P:problem=kreska pseudotaktowa	!
!	!	!	!	!	!	!LO:TX:t=P:problem=# below	!
.	.	.	.	.	.	2c#X/	-ti-
!	!	!	!	!LO:LB:g=original	!	!	!
=18-	=18-	=18-	=18-	=18-	=18-	=18-	=18-
!LO:TX:t=P:problem=kreska pseudotaktowa	!	!	!	!LO:TX:a:t=P:problem=custos d	!	!	!
1D\	.	1F/	.	.	.	2d\	-a
.	.	.	.	.	.	2d\	ple-
*Xlig	*	*Xlig	*	*	*	*	*
!	!	!	!	!	!	!LO:TX:t=P:problem=kreska pseudotaktowa	!
!	!	!	!	!	!	!LO:TX:a:t=P:problem=custos c	!
!	!	!	!	!	!	!LO:TX:t=P:problem=nad nutą daszek - korekta wysokości?	!
2GG,</	-na	1G/	.	2r	.	1B/	-na
*	*ij	*	*	*	*ij	*	*
2G\	gra-	.	.	2.d\	gra-	.	.
!	!	!	!	!	!	!LO:LB:g=original	!
=19-	=19-	=19-	=19-	=19-	=19-	=19-	=19-
2D/	.	1F/	-ti-	.	.	2r	.
.	.	.	.	4d\	-ti-	.	.
!	!	!	!	!LO:TX:t=P:problem=kreska pseudotaktowa	!	!LO:TX:t=P:problem=kreska pseudotaktowa	!
*	*	*	*	*	*	*	*ij
1F\	-ti-	.	.	2A/	-a	2c/	gra-
!	!	!LO:TX:t=P:problem=kreska pseudotaktowa	!	!	!	!	!
.	.	1G/	-a	2B\	ple-	2d\	-ti-
!LO:TX:t=P:problem=kreska pseudotaktowa	!	!	!	!	!	!	!
!LO:TX:a:t=P:problem=custos d	!	!	!	!	!	!	!
2E\	-a	.	.	2c\	.	2e\	-a
*	*Xij	*	*	*	*	*	*
!LO:PB:g=original	!	!	!	!	!	!	!
=20-	=20-	=20-	=20-	=20-	=20-	=20-	=20-
*	*	*lig	*	*	*	*	*
1D\	ple-	1A\	ple-	1d\	.	1.f\	ple-
!	!	!	!	!LO:TX:t=P:problem=kreska pseudotaktowa	!	!	!
4C/	.	1c\	.	0G/	-na	.	.
4D/	.	.	.	.	.	.	.
!	!	!	!	!	!	!LO:TX:t=P:problem=kreska pseudotaktowa	!
4E\	.	.	.	.	.	2e\	.
!LO:TX:t=P:problem=kreska pseudotaktowa	!	!	!	!	!	!	!
4F\	.	.	.	.	.	.	.
*	*	*Xlig	*	*	*	*	*
=21-	=21-	=21-	=21-	=21-	=21-	=21-	=21-
*	*	*lig	*	*	*	*	*
2G\	.	1B\	.	.	.	1d\	.
2GG/	.	.	.	.	.	.	.
4AA/	.	1A\	.	2r	.	4c\	.
4BB/	.	.	.	.	.	4d\	.
*	*	*	*	*	*ij	*	*
4C/	.	.	.	2c\	gra-	4e\	.
!LO:TX:t=P:problem=kreska pseudotaktowa	!	!	!	!	!	!LO:TX:t=P:problem=kreska pseudotaktowa	!
4D/	.	.	.	.	.	4f\	.
*	*	*Xlig	*	*	*	*	*
=22-	=22-	=22-	=22-	=22-	=22-	=22-	=22-
*	*	*lig	*	*	*	*	*
2E\	.	1G/	.	2B\	-ti-	2g\	.
!	!	!	!	!LO:TX:t=P:problem=kreska pseudotaktowa	!	!	!
2C/	.	.	.	2c\	-a	2e\	.
!	!	!LO:TX:t=P:problem=kreska pseudotaktowa	!	!	!	!	!
!	!	!LO:TX:a:t=P:problem=custos a	!	!	!	!	!
0D\	-na	1F/	.	4B\	ple-	2.d\	.
.	.	.	.	4A/	.	.	.
.	.	.	.	4B\	.	.	.
!	!	!	!	!	!	!LO:TX:t=P:problem=kreska pseudotaktowa	!
.	.	.	.	4c\	.	4e\	.
*	*	*Xlig	*	*	*	*	*
!	!	!LO:PB:g=original	!	!	!	!	!
=23-	=23-	=23-	=23-	=23-	=23-	=23-	=23-
*	*	*lig	*	*	*	*	*
.	.	1A\	-na	2.d\	.	4f\	.
.	.	.	.	.	.	2g\	.
!	!	!	!	!LO:TX:t=P:problem=kreska pseudotaktowa	!	!LO:TX:t=P:problem=kreska pseudotaktowa	!
.	.	.	.	4c\	.	4f\	.
!LO:TX:t=P:problem=kreska pseudotaktowa	!	!	!	!	!	!	!
0GG/	.	1G/,<	.	4B\	.	2g\	-na
.	.	.	.	4A/	.	.	.
*	*	*	*	*	*	*lig	*Xij
.	.	.	.	2.B\	.	1d\	Do-
*	*	*Xlig	*	*	*	*	*
=24-	=24-	=24-	=24-	=24-	=24-	=24-	=24-
*	*	*lig	*	*	*	*	*
.	.	1G/	Do-	.	.	.	.
.	.	.	.	4A/	.	.	.
!	!	!	!	!LO:TX:t=P:problem=kreska pseudotaktowa	!	!	!
.	.	.	.	2G/	.	1g\	.
*	*	*	*	*	*	*Xlig	*
1r	.	1d\	.	1D/,<	-na	.	.
!	!	!	!	!	!	!LO:TX:t=P:problem=# above	!
.	.	.	.	.	.	2f#X\	-mi-
*	*	*Xlig	*	*	*Xij	*	*
=25-	=25-	=25-	=25-	=25-	=25-	=25-	=25-
*	*	*lig	*	*	*	*	*
0C/	Do-	1e\	.	1.G/	Do-	2g\	-nus
.	.	.	.	.	.	4g\	.
!	!	!	!	!	!	!LO:TX:t=P:problem=kreska pseudotaktowa	!
.	.	.	.	.	.	4f\	.
.	.	1c\	.	.	.	4e\	te-
.	.	.	.	.	.	4d\	.
.	.	.	.	1c\	.	2e\	.
*	*	*Xlig	*	*	*	*	*
=26-	=26-	=26-	=26-	=26-	=26-	=26-	=26-
*lig	*	*lig	*	*	*	*	*
1G\	.	1d\	.	.	.	2d\	-cum
!	!	!	!	!	!	!LO:TX:t=P:problem=kreska pseudotaktowa	!
*	*	*	*	*	*	*	*ij
.	.	.	.	2B\	-mi-	2g\	Do-
!	!	!	!	!LO:TX:a:t=P:problem=custos d	!	!	!
1A\	.	1c\	.	1c\	-nus	2e\	-mi-
.	.	.	.	.	.	2f\	-nus
*Xlig	*	*Xlig	*	*	*	*	*
!	!	!	!	!LO:LB:g=original	!	!	!
=27-	=27-	=27-	=27-	=27-	=27-	=27-	=27-
*	*	*lig	*	*	*	*lig	*
2G\	-mi-	1B\	.	2d\	te-	1g\	te-
!LO:TX:t=P:problem=kreska pseudotaktowa	!	!	!	!	!	!	!
2E\	-nus	.	.	2e\	.	.	.
!	!	!	!	!	!	!LO:TX:t=P:problem=kreska pseudotaktowa	!
!	!	!	!	!	!	!LO:TX:a:t=P:problem=custos g	!
1F\	te-	1A\	.	2c\	.	1a\	.
!	!	!	!	!LO:TX:t=P:problem=kreska pseudotaktowa	!	!	!
.	.	.	.	2d\	.	.	.
*	*	*Xlig	*	*	*	*Xlig	*
!	!	!	!	!	!	!LO:LB:g=original	!
=28-	=28-	=28-	=28-	=28-	=28-	=28-	=28-
*	*	*lig	*	*	*	*	*
2E\	.	1B\	.	2e\	.	2g\	-cum
!LO:TX:t=P:problem=kreska pseudotaktowa	!	!	!	!	!	!LO:TX:t=P:problem=kreska pseudotaktowa	!
2D/	.	.	.	2f\	.	2r	.
*	*	*	*	*	*	*	*Xij
2C/	.	1c\	.	2e\	.	4g\	Do-
.	.	.	.	.	.	4g\	-mi-
!	!	!	!	!LO:TX:t=P:problem=kreska pseudotaktowa	!	!	!
1F\	.	.	.	2f\	-cu(m)	2a\	-n(us)
*	*	*Xlig	*	*	*	*	*
=29-	=29-	=29-	=29-	=29-	=29-	=29-	=29-
.	.	1d\	.	1f\	Do-	0a\	te-
2D/	.	.	.	.	.	.	.
1A\	.	1c\	-mi-	1e\	-mi-	.	.
=30-	=30-	=30-	=30-	=30-	=30-	=30-	=30-
!LO:TX:t=P:problem=kreska pseudotaktowa	!	!LO:TX:t=P:problem=kreska pseudotaktowa	!	!	!	!LO:TX:t=P:problem=kreska pseudotaktowa	!
1D\	-cum	1d\	-nus	2d\	-nus	1f#X\	-cu(m)
!	!	!	!	!LO:TX:t=P:problem=kreska pseudotaktowa	!	!	!
.	.	.	.	2A/	te-	.	.
*	*	*lig	*	*	*	*	*
2r	.	1d\	te-	4G/	.	1.g\	Do-
.	.	.	.	4A/	.	.	.
!LO:TX:t=P:problem=kreska pseudotaktowa	!	!	!	!LO:TX:t=P:problem=kreska pseudotaktowa	!	!	!
!LO:TX:a:t=P:problem=custos e	!	!	!	!	!	!	!
2G\	Do-	.	.	2B\	.	.	.
!LO:LB:g=original	!	!	!	!	!	!	!
=31-	=31-	=31-	=31-	=31-	=31-	=31-	=31-
2E\	-mi-	1c\	.	2G/	.	.	.
2F\	-nus	.	.	2A/	.	2f\	-mi-
*	*	*Xlig	*	*	*	*	*
*	*	*lig	*	*	*	*	*
!	!	!	!	!	!	!LO:TX:t=P:problem=kreska pseudotaktowa	!
1G\	.	1B\	.	4B\	.	1d\	-nus
.	.	.	.	4c\	.	.	.
.	.	.	.	4d\	.	.	.
!	!	!	!	!LO:TX:t=P:problem=kreska pseudotaktowa	!	!	!
.	.	.	.	4B\	.	.	.
=32-	=32-	=32-	=32-	=32-	=32-	=32-	=32-
2C/	te-	1A\	.	2e\	.	2e\	te-
!LO:TX:t=P:problem=kreska pseudotaktowa	!	!	!	!	!	!	!
2D/	.	.	.	2d\	.	2f\	.
*lig	*	*Xlig	*	*	*	*	*
*	*	*lig	*	*	*	*	*
1E\	.	1G/	.	4c\	.	2e\	.
.	.	.	.	4B\	.	.	.
.	.	.	.	4A/	.	4d\	.
!	!	!	!	!LO:TX:t=P:problem=kreska pseudotaktowa	!	!LO:TX:t=P:problem=kreska pseudotaktowa	!
.	.	.	.	4G/	.	4c/	.
=33-	=33-	=33-	=33-	=33-	=33-	=33-	=33-
*	*	*	*	*lig	*	*	*
1D\	.	1F/	.	1A\	.	1d\	.
*Xlig	*	*Xlig	*	*	*	*	*
!LO:TX:t=P:problem=kreska pseudotaktowa	!	!	!	!	!	!LO:TX:t=P:problem=kreska pseudotaktowa	!
1GG/	-cum	1G/,<	-cum	1B\	.	1d\	-cum
*	*	*	*	*Xlig	*	*	*
=34-	=34-	=34-	=34-	=34-	=34-	=34-	=34-
!	!	!	!	!LO:TX:t=P:problem=kreska pseudotaktowa	!	!	!
2r	.	1G/	be-	1c\	-cu(m)	2r	.
1C/	be-	.	.	.	.	1e\	be-
.	.	1G/	-ne-	2r	.	.	.
!	!	!	!	!	!	!LO:TX:t=P:problem=kreska pseudotaktowa	!
2C/	-ne-	.	.	1c\	be-	2e\	-ne-
=35-	=35-	=35-	=35-	=35-	=35-	=35-	=35-
*	*	*lig	*	*	*	*	*
2C/	-dic-	1G/	-di-	.	.	0e\	-di-
!	!	!	!	!LO:TX:t=P:problem=kreska pseudotaktowa	!	!	!
!	!	!	!	!LO:TX:t=P::problem=w dolnym rogu karty sylaby "dicta"&colon; kustosz słowny	!	!	!
!LO:TX:t=P:problem=kreska pseudotaktowa	!	!	!	!LO:TX:a:t=P:problem=custos c	!	!	!
2C/	-ta	.	.	2c\	-ne-	.	.
!LO:TX:t=P:problem=kreska pseudotaktowa	!	!	!	!LO:PB:g=original	!	!	!
0AA/	tu	1A\	.	2c\	-di-	.	.
.	.	.	.	2c\	-cta	.	.
*	*	*Xlig	*	*	*	*	*
=36-	=36-	=36-	=36-	=36-	=36-	=36-	=36-
*	*	*lig	*	*	*	*	*
!	!	!	!	!	!	!LO:TX:t=P:problem=kreska pseudotaktowa	!
.	.	1E/	.	1.A\	tu	1e\	-cta
!	!	!LO:TX:t=P:problem=kreska pseudotaktowa	!	!	!	!	!
!	!	!LO:TX:a:t=P:problem=custos g	!	!	!	!	!
*	*ij	*	*	*	*	*	*
1D\	be-	1F/	.	.	.	2.d\	.
!	!	!	!	!LO:TX:t=P::problem=kreska pseudotaktowa&colon;między nutą a kropką	!	!	!
*	*	*	*	*	*ij	*	*
.	.	.	.	2.d\	be-	.	.
.	.	.	.	.	.	4c/	tu
*	*	*Xlig	*	*	*	*	*
=37-	=37-	=37-	=37-	=37-	=37-	=37-	=37-
*	*	*lig	*	*	*	*	*
1GG/	-ne-	1G/	.	.	.	4B/	.
.	.	.	.	4c\	.	4A/	.
!	!	!	!	!	!	!LO:TX:t=P:problem=kreska pseudotaktowa	!
.	.	.	.	2B\	.	2B/	.
2AA/	-di-	1F/	.	2A/	.	2c/	.
!LO:TX:t=P:problem=kreska pseudotaktowa	!	!	!	!LO:TX:t=P:problem=kreska pseudotaktowa	!	!	!
2BB/	.	.	.	2D/	-ne-	2d\	.
*	*	*Xlig	*	*	*	*	*
=38-	=38-	=38-	=38-	=38-	=38-	=38-	=38-
*	*	*lig	*	*	*	*	*
!	!	!	!	!	!	!LO:TX:t=P:problem=kreska pseudotaktowa	!
!	!	!	!	!	!	!LO:TX:a:t=P:problem=custos f	!
1C/	.	1E/	.	2A/	-di-	1e\	.
.	.	.	.	2G/	.	.	.
!	!	!	!	!	!	!LO:PB:g=original	!
2D/	.	1D/	.	2F#X/	.	2f\	.
!LO:TX:t=P:problem=kreska pseudotaktowa	!	!	!	!LO:TX:t=P:problem=kreska pseudotaktowa	!	!	!
2BB/	-cta	.	.	2G/	-cta	1d\	.
*	*	*Xlig	*	*	*	*	*
=39-	=39-	=39-	=39-	=39-	=39-	=39-	=39-
*	*	*lig	*	*	*	*	*
1AA/	tu	1E/	.	0A\	tu	.	.
!	!	!	!	!	!	!LO:TX:t=P:problem=kreska pseudotaktowa	!
!	!	!	!	!	!	!LO:TX:t=P:problem=# below	!
.	.	.	.	.	.	2c#X/	.
!LO:TX:t=P:problem=kreska pseudotaktowa	!	!	!	!	!	!	!
1D\	be-	1F/	.	.	.	1.d\	.
*	*	*Xlig	*	*	*	*	*
=40-	=40-	=40-	=40-	=40-	=40-	=40-	=40-
*	*	*lig	*	*	*	*	*
2GG/	-ne-	1G/	.	2r	.	.	.
*	*	*	*	*	*Xij	*	*
!	!	!	!	!LO:TX:t=P:problem=kreska pseudotaktowa	!	!	!
1C/	-di-	.	.	2G/	be-	1e\	be-
.	.	1A\	.	1c\	-ne-	.	.
!	!	!	!	!	!	!LO:TX:t=P:problem=kreska pseudotaktowa	!
2AA/	-cta	.	.	.	.	2e\	-ne-
*	*	*Xlig	*	*	*	*	*
=41-	=41-	=41-	=41-	=41-	=41-	=41-	=41-
!LO:TX:t=P:problem=kreska pseudotaktowa	!	!	!	!	!	!	!
!LO:TX:a:t=P:problem=custos g	!	!	!	!	!	!	!
*	*	*lig	*	*	*	*	*
1D\	tu	1F/	-cta	2A/	-di-	1.d\	-di-
*	*Xij	*	*	*	*	*	*
!	!	!	!	!LO:TX:t=P:problem=kreska pseudotaktowa	!	!	!
.	.	.	.	2d\	-cta	.	.
!LO:LB:g=original	!	!	!	!	!	!	!
2GG/	in	1G/	.	2B\	tu	.	.
*	*	*	*	*	*ij	*	*
2.C/	mu-	.	.	1c\	be-	2.e\	-cta
*	*	*Xlig	*	*	*	*	*
=42-	=42-	=42-	=42-	=42-	=42-	=42-	=42-
!	!	!LO:TX:t=P:problem=kreska pseudotaktowa	!	!	!	!	!
.	.	1G/	tu	.	.	.	.
4D/	.	.	.	.	.	4f\	.
!LO:TX:t=P:problem=kreska pseudotaktowa	!	!	!	!LO:TX:t=P:problem=kreska pseudotaktowa	!	!	!
2E\	.	.	.	2B\	-ne-	4g\	.
!	!	!	!	!	!	!LO:TX:t=P:problem=kreska pseudotaktowa	!
.	.	.	.	.	.	4f\	.
2C/	-li-	1G/	in	1.c\	-di-	4e\	.
.	.	.	.	.	.	4d\	.
1C/	-e-	.	.	.	.	1e\	.
=43-	=43-	=43-	=43-	=43-	=43-	=43-	=43-
*	*	*lig	*	*	*	*	*
.	.	1G/	mu-	.	.	.	.
!LO:TX:t=P:problem=kreska pseudotaktowa	!	!	!	!	!	!LO:TX:t=P:problem=kreska pseudotaktowa	!
2GG/	-ri-	.	.	2B\	.	2d\	tu
1D\	-bus	1A\	.	2A/	.	1d\	in
!	!	!	!	!LO:TX:t=P:problem=kreska pseudotaktowa	!	!	!
.	.	.	.	2F/	-cta	.	.
*	*	*Xlig	*	*	*	*	*
=44-	=44-	=44-	=44-	=44-	=44-	=44-	=44-
*	*	*lig	*	*	*	*	*
!LO:TX:t=P:problem=kreska pseudotaktowa	!	!	!	!LO:TX:t=P:problem=kreska pseudotaktowa	!	!	!
1C/	in	1c\	.	1G/	tu	2e\	mu-
!	!	!	!	!	!	!LO:TX:t=P:problem=kreska pseudotaktowa	!
.	.	.	.	.	.	2e\	-li-
2G\	mu-	1B\	.	2r	.	2d\	-e-
*	*	*	*	*	*Xij	*	*
2E\	-li-	.	.	2G/	in	2e\	-ri-
*	*	*Xlig	*	*	*	*	*
=45-	=45-	=45-	=45-	=45-	=45-	=45-	=45-
*lig	*	*	*	*	*	*	*
1F\	-e-	1A\	.	2c\	Mu-	2c/	-bus
!	!	!	!	!LO:TX:t=P:problem=kreska pseudotaktowa	!	!LO:TX:t=P:problem=kreska pseudotaktowa	!
!	!	!	!	!LO:TX:a:t=P:problem=custos g	!	!	!
*	*	*	*	*	*	*	*ij
.	.	.	.	2A/	-li-	2c/	in
!	!	!	!	!LO:LB:g=original	!	!	!
1E\	.	1c\	-li-	1G/	-e-	1.g\	mu-
*Xlig	*	*	*	*	*	*	*
=46-	=46-	=46-	=46-	=46-	=46-	=46-	=46-
*	*	*lig	*	*	*	*	*
2.D/	-ri-	1d\	-e-	2.A/	.	.	.
.	.	.	.	.	.	2f\	-li-
!	!	!	!	!LO:TX:t=P:problem=kreska pseudotaktowa	!	!	!
4D/	-bus	.	.	4G/	.	.	.
!LO:TX:t=P:problem=kreska pseudotaktowa	!	!	!	!	!	!	!
1AA/	.	1c\	.	4A/	.	2e\	-e-
.	.	.	.	4B\	.	.	.
!	!	!	!	!	!	!LO:TX:t=P:problem=kreska pseudotaktowa	!
.	.	.	.	2c\	-ri-	2e\	-ri-
*	*	*Xlig	*	*	*	*	*
=47-	=47-	=47-	=47-	=47-	=47-	=47-	=47-
*	*	*lig	*	*	*	*	*
!	!	!	!	!LO:TX:t=P:problem=kreska pseudotaktowa	!	!	!
2r	.	1B\	.	1G/	-bus	2d\	-bus
*	*ij	*	*	*	*	*	*
2GG/	in	.	.	.	.	2g\	in
2C/	mu-	1c\	.	2r	.	2e\	mu-
*	*	*	*	*	*ij	*	*
2E\	.	.	.	2G/	in	2e\	-li-
*	*	*Xlig	*	*	*	*	*
=48-	=48-	=48-	=48-	=48-	=48-	=48-	=48-
*	*	*lig	*	*	*	*	*
2.D/	.	1A\	.	1.d\	mu-	2.f\	-e-
!	!	!	!	!	!	!LO:TX:t=P:problem=kreska pseudotaktowa	!
!LO:TX:t=P:problem=kreska pseudotaktowa	!	!	!	!	!	!LO:TX:a:t=P:problem=custos d	!
4C/	.	.	.	.	.	4e\	.
4BB/	.	1B\	.	.	.	2d\	.
4AA/	.	.	.	.	.	.	.
!	!	!	!	!LO:TX:t=P:problem=kreska pseudotaktowa	!	!	!
2GG/	-li-	.	.	2d\	-li-	1g\	.
*	*	*Xlig	*	*	*	*	*
=49-	=49-	=49-	=49-	=49-	=49-	=49-	=49-
1.D\	-e-	1A\	-ri-	1.d\	-e-	.	.
.	.	.	.	.	.	4f\	.
.	.	.	.	.	.	4e\	.
.	.	1A\	-bus.	.	.	1f#X\	-ri-
!LO:TX:t=P:problem=kreska pseudotaktowa	!	!	!	!	!	!	!
2D/	-ri-	.	.	2d\	-ri-	.	.
=50-	=50-	=50-	=50-	=50-	=50-	=50-	=50-
2GG/	-bus	00.G/;;	.	2B\	-bus	2g\	-bus
*	*	*	*	*	*	*	*Xij
!	!	!	!	!LO:TX:t=P:problem=kreska pseudotaktowa	!	!LO:TX:t=P:problem=kreska pseudotaktowa	!
2GG/	in	.	.	2B\	in	2d\	in
2C/	mu-	.	.	2e\	mu-	2c\	mu-
2C/	-li-	.	.	2.d\	-li-	2d\	-li-
=51-	=51-	=51-	=51-	=51-	=51-	=51-	=51-
1.C/	-e-	.	.	.	.	1.e\	-e-
.	.	.	.	4c\	.	.	.
.	.	.	.	1c\	-e-	.	.
2C/	-ri-	.	.	4B\	-ri-	4d\	-ri-
.	.	.	.	4A\	.	4c/	-bus
=52-	=52-	=52-	=52-	=52-	=52-	=52-	=52-
!	!	!	!	!	!	!LO:TX:a:t=P:problem=custos c	!
0GG/;	-bus	.	.	0B\;	-bus	0d\;	.
=-	=-	=-	=-	=-	=-	=-	=-
*-	*-	*-	*-	*-	*-	*-	*-
!!!system-decoration: [(s1,s2,s3,s4)]
!!!RDF**kern: > = above
!!!RDF**kern: < = below
!!!EED: Leszek Kubiak
!!!EEV: 2021-03-15
!!!ENC: Mateusz Solarz
!!!END: 2021-02-24
!!!YEC: Copyright 2022 Narodowy Instytut Fryderyka Chopina (https://polishscores.org)
!!!YEM: Licence CC BY 4.0 (https://creativecommons.org/licenses/by/4.0)
